Newaita-dark/actions/22/format-text-capitalize.svg

<svg xmlns="http://www.w3.org/2000/svg" xmlns:xlink="http://www.w3.org/1999/xlink" width="22px" height="22px" viewBox="0 0 22 22" version="1.1">
<g id="surface1">
     <defs>
  <style id="current-color-scheme" type="text/css">
   .ColorScheme-Text { color:#eeeeee; } .ColorScheme-Highlight { color:#424242; }
  </style>
 </defs>
<path style="fill:currentColor" class="ColorScheme-Text" d="M 11.824219 8.359375 L 11.824219 19.273438 L 13.644531 19.273438 L 13.644531 18.910156 C 14.179688 19.140625 14.800781 19.273438 15.464844 19.273438 C 17.273438 19.273438 18.765625 18.292969 19.050781 17 L 19.101562 17 L 19.101562 16.542969 C 19.101562 15.03125 17.480469 13.816406 15.464844 13.816406 C 14.800781 13.816406 14.179688 13.949219 13.644531 14.179688 L 13.644531 8.359375 Z M 15.464844 15.636719 C 16.472656 15.636719 17.28125 16.039062 17.28125 16.542969 C 17.28125 17.046875 16.472656 17.453125 15.464844 17.453125 C 14.457031 17.453125 13.644531 17.046875 13.644531 16.542969 C 13.644531 16.039062 14.457031 15.636719 15.464844 15.636719 Z M 15.464844 15.636719 "/>
     <defs>
  <style id="current-color-scheme" type="text/css">
   .ColorScheme-Text { color:#eeeeee; } .ColorScheme-Highlight { color:#424242; }
  </style>
 </defs>
<path style="fill:currentColor" class="ColorScheme-Text" d="M 6.367188 8.359375 C 4.351562 8.359375 2.730469 9.574219 2.730469 11.085938 L 2.730469 19.273438 L 4.546875 19.273438 L 4.546875 15.636719 L 8.1875 15.636719 L 8.1875 19.273438 L 10.003906 19.273438 L 10.003906 11.085938 C 10.003906 9.574219 8.382812 8.359375 6.367188 8.359375 Z M 6.367188 10.175781 C 7.375 10.175781 8.1875 10.582031 8.1875 11.085938 L 8.1875 13.816406 L 4.546875 13.816406 L 4.546875 11.085938 C 4.546875 10.582031 5.359375 10.175781 6.367188 10.175781 Z M 6.367188 10.175781 "/>
     <defs>
  <style id="current-color-scheme" type="text/css">
   .ColorScheme-Text { color:#eeeeee; } .ColorScheme-Highlight { color:#424242; }
  </style>
 </defs>
<path style="fill:currentColor" class="ColorScheme-Text" d="M 3.183594 2.902344 L 9.550781 2.902344 L 6.367188 7.449219 Z M 3.183594 2.902344 "/>
</g>
</svg>

<svg xmlns="http://www.w3.org/2000/svg" width="22pt" height="22pt" viewBox="0 0 22 22"><path d="M11.824 8.36v10.913h1.82v-.363c.536.23 1.157.363 1.82.363 1.81 0 3.302-.98 3.587-2.273h.05v-.457c0-1.512-1.62-2.727-3.636-2.727-.664 0-1.285.133-1.82.364V8.36zm3.64 7.277c1.009 0 1.817.402 1.817.906s-.808.91-1.816.91-1.82-.406-1.82-.91.812-.906 1.82-.906zm0 0M6.367 8.36c-2.015 0-3.637 1.214-3.637 2.726v8.187h1.817v-3.636h3.64v3.636h1.817v-8.187c0-1.512-1.621-2.727-3.637-2.727zm0 1.816c1.008 0 1.82.406 1.82.91v2.73h-3.64v-2.73c0-.504.812-.91 1.82-.91zm0 0" fill="#bdbdbd"/><path d="M2.996 2.281a.644.644 0 0 1 .176-.472.653.653 0 0 1 .465-.196h5.46a.642.642 0 0 1 .55.973L6.92 7.136a.643.643 0 0 1-1.106 0l-2.726-4.55a.63.63 0 0 1-.09-.305zm1.781.621l1.59 2.649 1.59-2.649zm0 0" fill="#26a69a"/></svg>
